X: 35648
T: Sailor On The Rock, The
R: reel
M: 4/4
K: Dmajor
d2fd BAFB|A (3DDD D FAAB|d2fd BAFB|ABdf efde|
d2fd BAFB|A (3DDD D FAAB|defd BAFB|ABdf efd2||
f (3aaa g fdef|gfga bgeg|faag fedB|ABdf efde|
f (3aaa g fdef|gfga bgeg|f2fe d2dB|ABdf efd2||

